!!!!SEGMENT: pl-wnifc--13846--157_anonim--157-proszu-tebe-atamane.krn
!!!cenid: 18xx:3379
!!!COM: Anonim
!!!COM-rismid: pe30004985
!!!CDT:
!!!CNT:
!!!OTL: 157. Proszu tebe atamane
!!!PDT: 1833
!!!AGN:
!!!SMS-siglum: PL-Wnifc
!!!SMS-shelfmark: 13846
!!!SMS-shelfwork: 157 W
!!!SMS-variant:
!!!SMS-altvar:
!!!NIFC-rismid: 1001039690
!!!URL-scan: http://repozytorium.nifc.pl/skany/pl-wnifc-nut--13846
!!!ONB-nifc:
!!!key: G
**kern	**kern	**kern	**text
*part3	*part2	*part1	*part1
*group2	*group2	*group1	*group1
*staff3	*staff2	*staff1	*staff1
*I"[Fortepian.]	*I"[Fortepian.]	*I"[Głos.]	*
*I'	*I'	*I'	*
*Ipiano	*Ipiano	*Ivox	*
*ICklav	*ICklav	*ICvox	*
*IGacmp	*IGacmp	*IGsolo	*
*clefF4	*clefG2	*clefG2	*
*k[f#]	*k[f#]	*k[f#]	*
*G:	*G:	*G:	*
*M3/4	*M3/4	*M3/4	*
=1	=1	=1	=1
*^	*	*	*
!	!	!	!LO:TX:a:B:t=E.357.	!
!	!	!	!LO:TX:a:B:t=Andante con moto	!
4F#/	[4D^\	8cc|\L	8cc\	Pro-
.	.	8b|\J	8b\	-szu
4c 4F#/	4D^\]	(8a\L	(8a\L	te-
.	.	8ee\	8ee\	.
4c 4F#/	4D^\	8dd\)	8dd\J)	.
.	.	8f#|\J	8f#/	-be
=2	=2	=2	=2	=2
8GG/L	4GG\	8.g|/L	8.g/	a-
8BJ 8G 8D/	.	.	.	.
.	.	16a|/Jk	16a/	-ta-
8B 8G 8D/	2ryy	(8.b/L	8.b/L	-ma-
(8G\L	.	.	.	.
.	.	16g/Jk)	16g/Jk	.
8B\	.	4g/	4g/	-ne,
8d^\J)	.	.	.	.
*v	*v	*	*	*
!!linebreak:original
=3	=3	=3	=3
*clefG2	*	*	*
(8gL 8B'/	4dd\	4dd\	pro-
8G'/	.	.	.
8g 8B'/	(8.gg\L	(8.gg\L	-szu
8G'/	.	.	.
.	16ff#\Jk)	16ff#\Jk)	.
8g 8c'/	(16aa\LL	(16aa\LL	tia
.	16gg\	16gg\	.
8G'/J)	16ff#\)	16ff#\JJ)	.
.	16ee'\JJ	16ee\	na
=4	=4	=4	=4
8gL 8B/	(8.ee^<\L	(8.ee\L	py-
8G/J	.	.	.
.	16dd\Jk)	16dd\Jk)	.
8g 8B/	4dd\	4dd\	-wo,
*clefF4	*	*	*
(8d^<\L	.	.	.
8B^<\	4r	4r	.
8G^<\J)	.	.	.
=5!|:	=5!|:	=5!|:	=5!|:
*^	*	*	*
8DD/L	4DD\	8cc|\L	8cc\	ne
(<8c 8F# 8D|</	.	8b|\J	8b\	byj
8c 8F# 8D|/	2ryy	(8a\L	(8a\L	mo-
8cJ 8F# 8D|/)	.	8ee\	8ee\	.
8cL 8F# 8D/	.	8dd\)	8dd\J)	.
8cJ 8F# 8D/	.	8f#|\J	8f#/	-ji
!!pagebreak:original
=6	=6	=6	=6	=6
8GG/L	4GG\	8.g|/L	8.g/	diw-
(<8B 8G 8D|</	.	.	.	.
.	.	16a|/Jk	16a/	-czy-
8B 8G 8D|/	2ryy	(8.b/L	(8.b/L	-noń-
8BJ 8G 8D|/)	.	.	.	.
.	.	16g/Jk)	16g/Jk)	.
8BL 8G 8D/	.	4g^/	4g/	-ki
8BJ 8G 8D/	.	.	.	.
=7	=7	=7	=7	=7
8DD/L	4DD\	8cc|\L	8cc\	jak
8c 8F# 8D/	.	8b|\J	8b\	wyj-
8c 8F# 8D/	2ryy	(8a\L	(8a\L	-de
8cJ 8F# 8D/	.	8ee\	8ee\	.
8cL 8A 8D/	.	8dd\)	8dd\J)	.
8cJ 8A 8D/	.	8f#|\J	8f#/	na
=8	=8	=8	=8	=8
8GG/L	4GG\	(8.a/L	(8.a/L	żny-
8BJ 8G 8D/	.	.	.	.
.	.	16g/Jk	16g/Jk)	.
4B 4G 4D/	4r	4g/)	4g/	-wo.
8GG|/	4ryy	4r	4r	.
8r	.	.	.	.
*v	*v	*	*	*
=:|!	=:|!	=:|!	=:|!
*-	*-	*-	*-
!!!system-decoration: g1{g2}
!!!RDF**kern: > = above
!!!RDF**kern: < = below
!!!RDF**kern: | = vertical stroke
!!!ENC:Anastazja Marusiak
!!!END:2021-11-10
